images/monri.svg

<?xml version="1.0" encoding="UTF-8"?>
<svg width="335px" height="155px" viewBox="0 0 335 155" version="1.1" xmlns="http://www.w3.org/2000/svg" xmlns:xlink="http://www.w3.org/1999/xlink">
    <title>monri</title>
    <g id="Page-1" stroke="none" stroke-width="1" fill="none" fill-rule="evenodd">
        <path d="M262.0111,127.7708 L265.5167,141.8344 L271.9942,127.7708 L277.3689,127.7708 L277.368,127.771 L275.6174,131.2243 L273.7908,131.2243 L274.4963,131.7456 L275.1196,132.2056 L263.7816,154.5574 L258.2736,154.5574 L262.0023,147.4994 L256.352,127.7708 L262.0111,127.7708 Z M247.134,127.2138 C250.4543,127.2138 252.8016,127.7479 254.1642,128.8216 C255.5334,129.8895 256.0989,131.5956 255.8562,133.9291 L254.4486,147.4645 L249.2595,147.4645 L249.5262,144.8992 C247.7877,146.2689 246.4041,147.1281 245.376,147.4702 C244.347,147.8189 243.2727,147.9929 242.1468,147.9929 C240.4287,147.9929 239.053,147.4359 238.0374,146.3154 C237.0217,145.2011 236.6025,143.7616 236.785,142.0087 C237.0163,139.7855 238.0266,138.1023 239.8178,136.9534 C241.6085,135.8099 245.2119,135.0958 250.6275,134.8113 L250.6824,134.2832 C250.8106,133.0526 250.4806,132.1532 249.6846,131.6016 C248.8952,131.0443 247.5195,130.7656 245.5574,130.7656 C244.2166,130.7656 242.2482,131.2764 239.6517,132.2983 L239.4604,132.2983 L239.8901,128.1654 C242.5861,127.5271 245.0041,127.2138 247.134,127.2138 Z M303.1738,127.1614 C309.0943,127.1614 311.7297,130.3076 311.08,136.5993 L310.8909,138.4334 L296.9257,138.4334 C296.7449,142.3803 298.7818,144.3538 303.0304,144.3538 C305.2533,144.3538 307.5712,143.5471 309.9835,141.9393 L310.1692,141.9393 L309.7026,146.4605 C306.9332,147.4824 304.3729,147.9929 302.0278,147.9929 C298.3303,147.9929 295.6065,147.1105 293.849,145.3578 C292.0918,143.5992 291.384,141.0625 291.7253,137.7545 C292.0649,134.4691 293.2489,131.8805 295.2839,129.9938 C297.3126,128.1073 299.9466,127.1614 303.1738,127.1614 Z M285.7501,122.2455 L285.1758,127.7708 L291.2122,127.7708 L290.8531,131.2243 L284.8167,131.2243 L283.9728,139.3387 C283.756,141.4225 283.8815,142.7806 284.3436,143.4189 C284.8119,144.0519 285.6781,144.3711 286.9322,144.3711 C287.7386,144.3711 288.5601,144.1735 289.3912,143.7733 L289.5477,143.7733 L289.1769,147.3427 C287.748,147.6851 286.2391,147.8535 284.6486,147.8535 C282.3038,147.8535 280.6376,147.3543 279.6565,146.3502 C278.6698,145.3459 278.293,143.7208 278.5263,141.4806 L279.5927,131.2243 L277.0101,131.2243 L277.368,127.771 L277.369,127.77 L279.9694,127.7708 L280.544,122.2455 L285.7501,122.2455 Z M228.837,121.8391 C232.1629,121.8391 234.6111,122.518 236.1943,123.8704 C237.7777,125.2228 238.4303,127.2076 238.1593,129.8141 C237.8764,132.5362 236.6994,134.701 234.6267,136.3204 C232.5555,137.9342 229.987,138.7409 226.9284,138.7409 L222.9987,138.7409 L222.0916,147.4645 L216.4793,147.4645 L219.1439,121.8391 L228.837,121.8391 Z M325.7881,127.2311 C329.9383,127.2311 331.7632,129.663 331.2572,134.5269 L329.9116,147.4645 L324.6531,147.4645 L325.6733,137.6555 C325.9587,134.9102 325.8343,133.2034 325.2994,132.5418 C324.7591,131.8802 323.8126,131.5494 322.4483,131.5494 C321.3167,131.5494 319.9,132.0546 318.1932,133.0645 L316.6957,147.4645 L311.4774,147.4645 L313.5254,127.7711 L318.7434,127.7711 L318.4566,130.5278 C320.2327,129.193 321.6308,128.3049 322.6564,127.8754 C323.6819,127.446 324.7259,127.2311 325.7881,127.2311 Z M250.2745,137.702 C246.8208,137.9863 244.633,138.4274 243.7123,139.0193 C242.7854,139.6174 242.2701,140.4417 242.1601,141.4979 C242.0441,142.6181 242.2641,143.4016 242.8163,143.8427 C243.3739,144.2841 244.2912,144.5046 245.5738,144.5046 C246.9206,144.5046 248.3186,143.8952 249.7578,142.6703 L250.2745,137.702 Z M201.304,131.4255 C202.1865,131.4255 202.936,131.7337 203.5516,132.3491 C204.1673,132.9591 204.4752,133.7083 204.4752,134.5967 C204.4752,135.4856 204.1673,136.2376 203.5516,136.8533 C202.936,137.4631 202.1865,137.7681 201.304,137.7681 C200.4208,137.7681 199.6719,137.4631 199.0562,136.8533 C198.4464,136.232 198.1414,135.4799 198.1414,134.5967 C198.1414,133.7083 198.4464,132.9591 199.0562,132.3491 C199.6719,131.7337 200.4208,131.4255 201.304,131.4255 Z M183.4095,131.5477 C183.9263,131.5477 184.3648,131.7104 184.7251,132.0356 C185.0851,132.361 185.2651,132.7703 185.2651,133.2641 C185.2651,133.7692 185.0734,134.1757 184.6905,134.4836 C185.2245,134.7914 185.4915,135.2563 185.4915,135.8774 C185.4915,136.3947 185.3087,136.8185 184.9428,137.1495 C184.5771,137.4806 184.1267,137.6462 183.5923,137.6462 L181.0049,137.6462 L181.0049,131.5477 L183.4095,131.5477 Z M163.4241,131.5477 L165.1754,134.4314 L166.9178,131.5477 L168.1549,131.5477 L168.1549,137.6462 L166.9615,137.6462 L166.9615,133.691 L165.2451,136.5222 L165.1056,136.5222 L163.3895,133.6995 L163.3895,137.6462 L162.1871,137.6462 L162.1871,131.5477 L163.4241,131.5477 Z M173.016,131.5474 L173.016,132.6977 L170.4895,132.6977 L170.4895,133.9957 L172.7983,133.9957 L172.7983,135.1284 L170.4895,135.1284 L170.4895,136.4959 L173.0596,136.4959 L173.0596,137.6462 L169.2873,137.6462 L169.2873,131.5474 L173.016,131.5474 Z M208.9618,131.5477 L208.9618,132.6977 L206.5223,132.6977 L206.5223,134.1437 L208.8921,134.1437 L208.8921,135.294 L206.5223,135.294 L206.5223,137.6462 L205.3202,137.6462 L205.3202,131.5477 L208.9618,131.5477 Z M175.1417,131.5477 L176.8929,134.4314 L178.6354,131.5477 L179.8724,131.5477 L179.8724,137.6462 L178.679,137.6462 L178.679,133.691 L176.9627,136.5222 L176.8229,136.5222 L175.1071,133.6995 L175.1071,137.6462 L173.9046,137.6462 L173.9046,131.5477 L175.1417,131.5477 Z M190.0043,131.5474 L190.0043,132.6977 L187.4781,132.6977 L187.4781,133.9957 L189.7863,133.9957 L189.7863,135.1284 L187.4781,135.1284 L187.4781,136.4959 L190.048,136.4959 L190.048,137.6462 L186.2756,137.6462 L186.2756,131.5474 L190.0043,131.5474 Z M193.3325,131.5477 C193.8957,131.5477 194.3748,131.745 194.7702,132.1402 C195.1648,132.535 195.3623,133.0113 195.3623,133.5688 C195.3623,133.9464 195.2546,134.2962 195.04,134.6188 C194.8249,134.9411 194.5403,135.1834 194.1863,135.3459 L195.5364,137.6462 L194.2381,137.6462 L193.0099,135.5293 L192.0954,135.5293 L192.0954,137.6462 L190.8932,137.6462 L190.8932,131.5477 L193.3325,131.5477 Z M201.304,132.5931 C200.7465,132.5931 200.2788,132.7819 199.9012,133.1592 C199.5236,133.5371 199.3351,134.0161 199.3351,134.5967 C199.3351,135.1775 199.5236,135.6568 199.9012,136.0344 C200.2728,136.406 200.7405,136.592 201.304,136.592 C201.867,136.592 202.3347,136.406 202.7066,136.0344 C203.0839,135.6568 203.2727,135.1775 203.2727,134.5967 C203.2727,134.0161 203.0839,133.5371 202.7066,133.1592 C202.3288,132.7819 201.8613,132.5931 201.304,132.5931 Z M183.5923,135.0848 L182.2073,135.0848 L182.2073,136.5222 L183.5923,136.5222 C183.7956,136.5222 183.9642,136.4539 184.098,136.3176 C184.2313,136.181 184.2982,136.008 184.2982,135.7991 C184.2982,135.5959 184.2313,135.4261 184.098,135.2895 C183.9642,135.1531 183.7956,135.0848 183.5923,135.0848 Z M302.3643,130.3943 C299.4851,130.3943 297.7721,132.0891 297.2307,135.4791 L305.9719,135.4791 C306.2755,132.0891 305.0748,130.3943 302.3643,130.3943 Z M226.224,125.8671 L224.3032,125.8671 L223.3868,134.6777 L224.8843,134.6777 C227.6991,134.6777 229.5966,134.2891 230.595,133.5113 C231.5871,132.7335 232.1634,131.5438 232.3315,129.93 C232.4693,128.6068 232.1388,127.5968 231.3286,126.906 C230.5236,126.2152 228.8245,125.8671 226.224,125.8671 Z M193.3325,132.6717 L192.0954,132.6717 L192.0954,134.4748 L193.3325,134.4748 C193.5592,134.4748 193.7534,134.3863 193.9164,134.2092 C194.0785,134.032 194.1599,133.8186 194.1599,133.5688 C194.1599,133.3191 194.0785,133.1071 193.9164,132.933 C193.7534,132.7587 193.5592,132.6717 193.3325,132.6717 Z M183.4095,132.6717 L182.2073,132.6717 L182.2073,134.0133 L183.4095,134.0133 C183.5955,134.0133 183.7505,133.9492 183.8755,133.8214 C184.0005,133.6938 184.0629,133.534 184.0629,133.3423 C184.0629,133.1507 184.0022,132.9911 183.8798,132.8633 C183.7579,132.7354 183.6014,132.6717 183.4095,132.6717 Z M139.0212,32.2427 C162.0635,32.2427 178.8072,49.7475 178.8072,71.8569 C178.8072,93.9668 162.0635,111.4694 139.0212,111.4694 C116.057556,111.4694 99.4180072,94.3151017 99.0875126,72.5188019 L99.0825,71.8569 L99.0825,64.1804 C99.0825,52.9705 92.6303,44.68 81.5689,44.68 C72.0453,44.68 65.5937,50.5148 62.6757,60.3403 C62.8071857,61.2616429 62.8259694,62.1827653 62.8286528,63.0080102 L62.8291,63.4122 L62.8291,110.2411 L49.6179,110.2411 L49.6179,64.1804 C49.6179,52.9705 43.0123,44.68 31.9527,44.68 C23.1764197,44.68 16.4894581,49.8925792 13.3533183,58.7036843 L13.2111,59.1129 L13.2111,110.2411 L-1.42108547e-14,110.2411 L-1.42108547e-14,33.4724 L13.2111,33.4724 L13.2111,41.9171 C18.8955,34.854 27.1902,32.2427 34.8707,32.2427 C45.0088,32.2427 53.3038,36.8496 58.0663,44.8334 C65.2864,34.854 75.8869,32.2427 83.7212,32.2427 C94.9343,32.2427 103.5357,37.3102 108.2988,46.0616 C115.365,37.6169 126.2713,32.2427 139.0212,32.2427 Z M331.3431,33.4724 L331.3431,110.2411 L318.132,110.2411 L318.132,33.4724 L331.3431,33.4724 Z M305.0765,32.7028 C306.688688,32.7028 308.302789,32.8206297 309.812756,33.0555521 L310.4532,33.1634 L310.4532,46.829 C308.3012,46.215 305.8444,45.9077 303.0797,45.9077 C294.91849,45.9077 287.5009,49.9215206 284.043813,57.6546832 L283.877,58.038 L283.877,110.2411 L270.6658,110.2411 L270.6658,33.4724 L283.877,33.4724 L283.877,42.5311 C289.1004,35.9286 296.4742,32.7028 305.0765,32.7028 Z M226.5803,32.2427 C243.766106,32.2427 255.981825,44.131313 256.224421,62.8430931 L256.2281,63.4122 L256.2281,110.2411 L243.0184,110.2411 L243.0184,64.1804 C243.0184,52.9705 235.6449,44.68 223.6623,44.68 C213.051971,44.68 205.731624,50.5116525 202.882286,60.2557539 L202.7707,60.6476 L202.7707,110.2411 L189.561,110.2411 L189.561,33.4724 L202.7707,33.4724 L202.7707,42.2238 C208.6084,34.854 217.6713,32.2427 226.5803,32.2427 Z M139.0212,44.68 C123.3533,44.68 112.7526,56.6567 112.7526,71.8569 C112.7526,87.0571 123.3533,99.0321 139.0212,99.0321 C154.6897,99.0321 165.1348,87.0571 165.1348,71.8569 C165.1348,56.6567 154.6897,44.68 139.0212,44.68 Z M324.7376,-7.10542736e-14 C330.1146,-7.10542736e-14 334.2614,4.3002 334.2614,9.6721 C334.2614,12.473956 333.270772,14.8496642 331.5606,16.5289376 L331.3431,16.7352 L318.132,16.7352 C316.2895,15.0469 315.214,12.5907 315.214,9.6721 C315.214,4.3002 319.3608,-7.10542736e-14 324.7376,-7.10542736e-14 Z" id="monri" fill="#346275"></path>
    </g>
</svg>

<?xml version="1.0" encoding="utf-8"?>
<!-- Generator: Adobe Illustrator 24.1.2, SVG Export Plug-In . SVG Version: 6.00 Build 0)  -->
<svg version="1.1" id="Layer_1" xmlns="http://www.w3.org/2000/svg" xmlns:xlink="http://www.w3.org/1999/xlink" x="0px" y="0px"
	 viewBox="0 0 335 155" style="enable-background:new 0 0 335 155;" xml:space="preserve">
<style type="text/css">
	.st0{fill-rule:evenodd;clip-rule:evenodd;fill:#FCF5A3;}
</style>
<g id="Page-1">
	<path id="monri" class="st0" d="M262,127.8l3.5,14.1l6.5-14.1h5.4l0,0l-1.8,3.5h-1.8l0.7,0.5l0.6,0.5l-11.3,22.4h-5.5l3.7-7.1
		l-5.7-19.7H262z M247.1,127.2c3.3,0,5.7,0.5,7,1.6c1.4,1.1,1.9,2.8,1.7,5.1l-1.4,13.5h-5.2l0.3-2.6c-1.7,1.4-3.1,2.2-4.2,2.6
		c-1,0.3-2.1,0.5-3.2,0.5c-1.7,0-3.1-0.6-4.1-1.7c-1-1.1-1.4-2.6-1.3-4.3c0.2-2.2,1.2-3.9,3-5.1c1.8-1.1,5.4-1.9,10.8-2.1l0.1-0.5
		c0.1-1.2-0.2-2.1-1-2.7c-0.8-0.6-2.2-0.8-4.1-0.8c-1.3,0-3.3,0.5-5.9,1.5h-0.2l0.4-4.1C242.6,127.5,245,127.2,247.1,127.2z
		 M303.2,127.2c5.9,0,8.6,3.1,7.9,9.4l-0.2,1.8h-14c-0.2,3.9,1.9,5.9,6.1,5.9c2.2,0,4.5-0.8,7-2.4h0.2l-0.5,4.5
		c-2.8,1-5.3,1.5-7.7,1.5c-3.7,0-6.4-0.9-8.2-2.6c-1.8-1.8-2.5-4.3-2.1-7.6c0.3-3.3,1.5-5.9,3.6-7.8
		C297.3,128.1,299.9,127.2,303.2,127.2z M285.8,122.2l-0.6,5.5h6l-0.4,3.5h-6l-0.8,8.1c-0.2,2.1-0.1,3.4,0.4,4.1
		c0.5,0.6,1.3,1,2.6,1c0.8,0,1.6-0.2,2.5-0.6h0.2l-0.4,3.6c-1.4,0.3-2.9,0.5-4.5,0.5c-2.3,0-4-0.5-5-1.5c-1-1-1.4-2.6-1.1-4.9
		l1.1-10.3H277l0.4-3.5l0,0l2.6,0l0.6-5.5H285.8z M228.8,121.8c3.3,0,5.8,0.7,7.4,2c1.6,1.4,2.2,3.3,2,5.9c-0.3,2.7-1.5,4.9-3.5,6.5
		c-2.1,1.6-4.6,2.4-7.7,2.4H223l-0.9,8.7h-5.6l2.7-25.6H228.8z M325.8,127.2c4.2,0,6,2.4,5.5,7.3l-1.3,12.9h-5.3l1-9.8
		c0.3-2.7,0.2-4.5-0.4-5.1c-0.5-0.7-1.5-1-2.9-1c-1.1,0-2.5,0.5-4.3,1.5l-1.5,14.4h-5.2l2-19.7h5.2l-0.3,2.8
		c1.8-1.3,3.2-2.2,4.2-2.7C323.7,127.4,324.7,127.2,325.8,127.2z M250.3,137.7c-3.5,0.3-5.6,0.7-6.6,1.3c-0.9,0.6-1.4,1.4-1.6,2.5
		c-0.1,1.1,0.1,1.9,0.7,2.3c0.6,0.4,1.5,0.7,2.8,0.7c1.3,0,2.7-0.6,4.2-1.8L250.3,137.7z M201.3,131.4c0.9,0,1.6,0.3,2.2,0.9
		c0.6,0.6,0.9,1.4,0.9,2.2c0,0.9-0.3,1.6-0.9,2.3c-0.6,0.6-1.4,0.9-2.2,0.9c-0.9,0-1.6-0.3-2.2-0.9c-0.6-0.6-0.9-1.4-0.9-2.3
		c0-0.9,0.3-1.6,0.9-2.2C199.7,131.7,200.4,131.4,201.3,131.4z M183.4,131.5c0.5,0,1,0.2,1.3,0.5c0.4,0.3,0.5,0.7,0.5,1.2
		c0,0.5-0.2,0.9-0.6,1.2c0.5,0.3,0.8,0.8,0.8,1.4c0,0.5-0.2,0.9-0.5,1.3c-0.4,0.3-0.8,0.5-1.4,0.5H181v-6.1H183.4z M163.4,131.5
		l1.8,2.9l1.7-2.9h1.2v6.1H167v-4l-1.7,2.8h-0.1l-1.7-2.8v3.9h-1.2v-6.1H163.4z M173,131.5v1.2h-2.5v1.3h2.3v1.1h-2.3v1.4h2.6v1.2
		h-3.8v-6.1H173z M209,131.5v1.1h-2.4v1.4h2.4v1.2h-2.4v2.4h-1.2v-6.1H209z M175.1,131.5l1.8,2.9l1.7-2.9h1.2v6.1h-1.2v-4l-1.7,2.8
		h-0.1l-1.7-2.8v3.9h-1.2v-6.1H175.1z M190,131.5v1.2h-2.5v1.3h2.3v1.1h-2.3v1.4h2.6v1.2h-3.8v-6.1H190z M193.3,131.5
		c0.6,0,1,0.2,1.4,0.6c0.4,0.4,0.6,0.9,0.6,1.4c0,0.4-0.1,0.7-0.3,1.1c-0.2,0.3-0.5,0.6-0.9,0.7l1.4,2.3h-1.3l-1.2-2.1h-0.9v2.1
		h-1.2v-6.1H193.3z M201.3,132.6c-0.6,0-1,0.2-1.4,0.6c-0.4,0.4-0.6,0.9-0.6,1.4c0,0.6,0.2,1.1,0.6,1.4c0.4,0.4,0.8,0.6,1.4,0.6
		c0.6,0,1-0.2,1.4-0.6c0.4-0.4,0.6-0.9,0.6-1.4c0-0.6-0.2-1.1-0.6-1.4C202.3,132.8,201.9,132.6,201.3,132.6z M183.6,135.1h-1.4v1.4
		h1.4c0.2,0,0.4-0.1,0.5-0.2c0.1-0.1,0.2-0.3,0.2-0.5c0-0.2-0.1-0.4-0.2-0.5C184,135.2,183.8,135.1,183.6,135.1z M302.4,130.4
		c-2.9,0-4.6,1.7-5.1,5.1h8.7C306.3,132.1,305.1,130.4,302.4,130.4z M226.2,125.9h-1.9l-0.9,8.8h1.5c2.8,0,4.7-0.4,5.7-1.2
		c1-0.8,1.6-2,1.7-3.6c0.1-1.3-0.2-2.3-1-3C230.5,126.2,228.8,125.9,226.2,125.9z M193.3,132.7h-1.2v1.8h1.2c0.2,0,0.4-0.1,0.6-0.3
		c0.2-0.2,0.2-0.4,0.2-0.6c0-0.2-0.1-0.5-0.2-0.6C193.8,132.8,193.6,132.7,193.3,132.7z M183.4,132.7h-1.2v1.3h1.2
		c0.2,0,0.3-0.1,0.5-0.2c0.1-0.1,0.2-0.3,0.2-0.5c0-0.2-0.1-0.4-0.2-0.5C183.8,132.7,183.6,132.7,183.4,132.7z M139,32.2
		c23,0,39.8,17.5,39.8,39.6c0,22.1-16.7,39.6-39.8,39.6c-23,0-39.6-17.2-39.9-39l0-0.7v-7.7c0-11.2-6.5-19.5-17.5-19.5
		c-9.5,0-16,5.8-18.9,15.7c0.1,0.9,0.2,1.8,0.2,2.7l0,0.4v46.8H49.6V64.2C49.6,53,43,44.7,32,44.7c-8.8,0-15.5,5.2-18.6,14l-0.1,0.4
		v51.1H0V33.5h13.2v8.4c5.7-7.1,14-9.7,21.7-9.7c10.1,0,18.4,4.6,23.2,12.6c7.2-10,17.8-12.6,25.7-12.6c11.2,0,19.8,5.1,24.6,13.8
		C115.4,37.6,126.3,32.2,139,32.2z M331.3,33.5v76.8h-13.2V33.5H331.3z M305.1,32.7c1.6,0,3.2,0.1,4.7,0.4l0.6,0.1v13.7
		c-2.2-0.6-4.6-0.9-7.4-0.9c-8.2,0-15.6,4-19,11.7l-0.2,0.4v52.2h-13.2V33.5h13.2v9.1C289.1,35.9,296.5,32.7,305.1,32.7z
		 M226.6,32.2c17.2,0,29.4,11.9,29.6,30.6l0,0.6v46.8H243V64.2c0-11.2-7.4-19.5-19.4-19.5c-10.6,0-17.9,5.8-20.8,15.6l-0.1,0.4v49.6
		h-13.2V33.5h13.2v8.8C208.6,34.9,217.7,32.2,226.6,32.2z M139,44.7c-15.7,0-26.3,12-26.3,27.2S123.4,99,139,99
		c15.7,0,26.1-12,26.1-27.2S154.7,44.7,139,44.7z M324.7,0c5.4,0,9.5,4.3,9.5,9.7c0,2.8-1,5.2-2.7,6.9l-0.2,0.2h-13.2
		c-1.8-1.7-2.9-4.1-2.9-7.1C315.2,4.3,319.4,0,324.7,0z"/>
</g>
</svg>
